X:1
T:Title
%%score ( 1 2 ) { 3 | 4 }
L:1/8
Q:1/4=110
M:4/4
K:Eb
V:1 treble nm="Grand Piano, Soprano"
V:2 treble 
V:3 bass nm="Choir Pad, From the Cyber Hymnal™"
V:4 bass 
V:1
 [EB]2 [EG]2 [Ec]2 [EB]2 | [DA]2 [EG]6 | [EB]2 E2 [EA]2 [EG]2 | [DF]2 E6 | %4
w: By~John~Adcock,~1882 * * *||||
 [B,G]2 [CF]2 [FB]2 [E=A]2 | [EG]2 [EF]2 [Dd]2 [Ec]2 | [EG]2 [DB]4 [C=A]2- | [CA]2 [DB]6 | %8
w: ||||
 [DB]2 [Ee]2 [EB]2 [Ec]2 | [EB]2 [EA]2 GF [EG]2 | [EB]2 [EF]2 [EG]2 [EA]2 | [Ec]2 [EB]4 [B,D]2- | %12
w: ||||
 [B,D]2 [B,E]6- | [B,E]2 z2 z4 |] %14
w: ||
V:2
 x8 | x8 | x8 | x8 | x8 | x8 | x8 | x8 | x8 | z4 D2 z2 | x8 | x8 | x8 | x8 |] %14
V:3
 G,2 B,2 A,2 F,2 | B,2 B,6 | B,2 G,2 C2 B,2 | A,2 G,6 | B,2 =A,2 B,2 F,2 | G,2 C2 F,2 G,2 | %6
 B,2 F,4 F,2- | F,2 F,6 | B,2 B,2 B,2 A,2 | B,2 C2 B,2 B,2 | B,2 C2 B,2 A,2 | A,2 F,2 G,2 A,2- | %12
 A,2 G,6- | G,2 z2 z4 |] %14
V:4
 E,2 E,2 A,,2 B,,2 | B,,2 E,6 | G,,2 C,2 F,,2 B,,2 | B,,2 E,6 | E,2 E,2 D,2 C,2 | %5
 B,,2 =A,,2 B,,2 E,2 | E,2 z2 z4 | z2 B,,6 | A,2 G,2 G,2 z2 | G,2 F,2 B,,2 E,2 | %10
 G,,2 A,,2 B,,2 C,2 | A,,2 B,,4 B,,2- | B,,2 E,6- | E,2 z2 z4 |] %14

